X:1871
L:1/8
M:2/2
K:Amin
 E2 | A2 AB cBcd | e2 a2 e2 ed | c2 A2 ABcA | BGEG BGEG | A2 AB cBcd | e2 a2 e2 ed | c2 A2 ABcA | 
 E2 A2 A2 :: E2 | ABAG E2 AB | c2 B2 c2 B2 | ABAG E2 G2 | B2 Bc BA G2 | ABAG E2 AB | c2 B2 c2 d2 | 
 e2 A2 ABAG | E2 A2 A2 :|

